papirus/16x16/apps/kalzium.svg

<?xml version="1.0" encoding="UTF-8" standalone="no"?>
<!-- Created with Inkscape (http://www.inkscape.org/) -->

<svg
   xmlns:dc="http://purl.org/dc/elements/1.1/"
   xmlns:cc="http://creativecommons.org/ns#"
   xmlns:rdf="http://www.w3.org/1999/02/22-rdf-syntax-ns#"
   xmlns:svg="http://www.w3.org/2000/svg"
   xmlns="http://www.w3.org/2000/svg"
   xmlns:sodipodi="http://sodipodi.sourceforge.net/DTD/sodipodi-0.dtd"
   xmlns:inkscape="http://www.inkscape.org/namespaces/inkscape"
   id="svg4354"
   height="16"
   viewBox="0 0 16 16"
   width="16"
   version="1.1"
   inkscape:version="0.91 r13725"
   sodipodi:docname="kalzium.svg">
  <defs
     id="defs10" />
  <sodipodi:namedview
     pagecolor="#ffffff"
     bordercolor="#666666"
     borderopacity="1"
     objecttolerance="10"
     gridtolerance="10"
     guidetolerance="10"
     inkscape:pageopacity="0"
     inkscape:pageshadow="2"
     inkscape:window-width="1600"
     inkscape:window-height="847"
     id="namedview8"
     showgrid="false"
     inkscape:zoom="5.9900718"
     inkscape:cx="-39.389831"
     inkscape:cy="16"
     inkscape:window-x="0"
     inkscape:window-y="0"
     inkscape:window-maximized="1"
     inkscape:current-layer="svg4354" />
  <metadata
     id="metadata4359">
    <rdf:RDF>
      <cc:Work
         rdf:about="">
        <dc:format>image/svg+xml</dc:format>
        <dc:type
           rdf:resource="http://purl.org/dc/dcmitype/StillImage" />
        <dc:title></dc:title>
      </cc:Work>
    </rdf:RDF>
  </metadata>
  <rect
     id="rect4203-1"
     ry="0.79999995"
     rx="0.79999995"
     transform="matrix(0,-1,-1,0,0,0)"
     height="16"
     width="16"
     y="-16"
     x="-16"
     style="fill:#de554c" />
  <path
     id="path8431-2"
     style="fill:#ffffff;enable-background:new"
     d="M 3.4999795,4.000392 C 2.6715908,4.000392 2,4.671983 2,5.500372 2,6.32876 2.6715908,7.000351 3.4999795,7.000351 c 0.3545152,0 0.6807408,-0.122488 0.9374873,-0.32812 L 5.595651,7.390971 A 1.9999727,1.9999727 0 0 0 5.500152,7.999963 1.9999727,1.9999727 0 0 0 5.597651,8.608454 L 4.4376669,9.327944 C 4.1809703,9.122447 3.8547247,8.999949 3.5001795,8.999949 2.6717908,8.999949 2.0002,9.67154 2.0002,10.499928 c 0,0.828389 0.6715908,1.49998 1.4999795,1.49998 0.8283887,0 1.4999796,-0.671491 1.4999796,-1.49998 0,-0.115498 -0.022,-0.219997 -0.046999,-0.327995 L 6.1220942,9.445393 A 1.9999727,1.9999727 0 0 0 7.500075,9.999885 1.9999727,1.9999727 0 0 0 8.880056,9.446393 l 1.166984,0.72549 c -0.025,0.107998 -0.047,0.212497 -0.047,0.327995 0,0.828389 0.671591,1.49998 1.499979,1.49998 C 12.328408,11.999858 13,11.328267 13,10.499878 13,9.67149 12.328409,8.999899 11.500019,8.999899 c -0.354515,0 -0.68074,0.122488 -0.937486,0.32812 L 9.404548,8.608529 A 1.9999727,1.9999727 0 0 0 9.500047,8.000038 1.9999727,1.9999727 0 0 0 9.403547,7.392546 l 1.158984,-0.72049 c 0.256497,0.205497 0.582992,0.327995 0.937487,0.327995 0.828389,0 1.499981,-0.671591 1.499981,-1.499979 0,-0.828389 -0.671591,-1.49998 -1.499981,-1.49998 -0.828388,0 -1.499979,0.671591 -1.499979,1.49998 0,0.115633 0.02218,0.220002 0.04687,0.32812 L 8.877976,6.554732 A 1.9999727,1.9999727 0 0 0 7.5,6.00024 1.9999727,1.9999727 0 0 0 6.1200188,6.553732 L 4.9530347,5.828242 c 0.025,-0.107998 0.046999,-0.212497 0.046999,-0.327995 0,-0.828389 -0.6715909,-1.49998 -1.4999796,-1.49998 z"
     inkscape:connector-curvature="0" />
</svg>

<?xml version="1.0" encoding="UTF-8" standalone="no"?>
<svg id="svg4354" xmlns:rdf="http://www.w3.org/1999/02/22-rdf-syntax-ns#" xmlns="http://www.w3.org/2000/svg" height="16" width="16" version="1.1" xmlns:cc="http://creativecommons.org/ns#" viewBox="0 0 16 16" xmlns:dc="http://purl.org/dc/elements/1.1/">
 <metadata id="metadata4359">
  <rdf:RDF>
   <cc:Work rdf:about="">
    <dc:format>image/svg+xml</dc:format>
    <dc:type rdf:resource="http://purl.org/dc/dcmitype/StillImage"/>
    <dc:title/>
   </cc:Work>
  </rdf:RDF>
 </metadata>
 <rect id="rect4203-1" ry="0.8" rx="0.8" transform="matrix(0,-1,-1,0,0,0)" height="16" width="16" y="-16" x="-16" fill="#de554c"/>
 <path id="path8431-2" style="enable-background:new" fill="#ffb668" d="m3.5 4.0004c-0.8284 0-1.5 0.6716-1.5 1.5s0.6716 1.5 1.5 1.5c0.35452 0 0.68074-0.12249 0.93749-0.32812l1.1582 0.7187a2 2 0 0 0 -0.0955 0.609 2 2 0 0 0 0.0975 0.6085l-1.16 0.7194c-0.2567-0.2055-0.583-0.328-0.9375-0.328-0.8284 0-1.5 0.6716-1.5 1.5001 0 0.82839 0.67159 1.5 1.5 1.5 0.82839 0 1.5-0.67149 1.5-1.5 0-0.1155-0.022-0.22-0.046999-0.328l1.1689-0.7266a2 2 0 0 0 1.378 0.5545 2 2 0 0 0 1.38 -0.5535l1.167 0.72549c-0.025 0.108-0.047 0.2125-0.047 0.328 0 0.82839 0.67159 1.5 1.5 1.5 0.828 0 1.5-0.672 1.5-1.5 0-0.8285-0.672-1.5001-1.5-1.5001-0.35452 0-0.68074 0.12249-0.93749 0.32812l-1.1585-0.7195a2 2 0 0 0 0.0955 -0.6085 2 2 0 0 0 -0.0965 -0.6075l1.159-0.72049c0.2565 0.2055 0.58299 0.328 0.93749 0.328 0.82839 0 1.5-0.67159 1.5-1.5 0-0.82839-0.67159-1.5-1.5-1.5-0.82839 0-1.5 0.67159-1.5 1.5 0 0.11563 0.02218 0.22 0.04687 0.32812l-1.168 0.7266a2 2 0 0 0 -1.378 -0.5545 2 2 0 0 0 -1.38 0.5535l-1.167-0.7255c0.025-0.108 0.046999-0.2125 0.046999-0.328 0-0.82839-0.67159-1.5-1.5-1.5z"/>
</svg>
